app/assets/images/Contenido/Lupa.svg

<svg fill="none" height="49" viewBox="0 0 49 49" width="49" xmlns="http://www.w3.org/2000/svg"><path clip-rule="evenodd" d="m35.0973 31.6012 13.1807 13.1808c.4633.4636.7235 1.0922.7232 1.7476-.0002.6554-.2608 1.2839-.7244 1.7472s-1.0923.7234-1.7477.7232-1.2839-.2608-1.7471-.7244l-13.1808-13.1807c-3.9402 3.0518-8.895 4.488-13.8566 4.0163-4.9615-.4717-9.55694-2.8158-12.8515-6.5554-3.29457-3.7397-5.040746-8.594-4.88330921-13.5754.15743721-4.9813 2.20665921-9.71567 5.73079921-13.23981s8.25851-5.573362 13.23991-5.73079921c4.9813-.15743679 9.8356 1.58873921 13.5753 4.88330921 3.7396 3.29456 6.0837 7.89 6.5554 12.8515.4717 4.9616-.9645 9.9164-4.0163 13.8566zm-15.4959 2.6974c3.8986 0 7.6375-1.5487 10.3942-4.3054 2.7568-2.7567 4.3055-6.4957 4.3055-10.3943 0-3.8985-1.5487-7.6375-4.3055-10.39419-2.7567-2.75673-6.4956-4.30544-10.3942-4.30544s-7.6375 1.54871-10.39424 4.30544c-2.75673 2.75669-4.30544 6.49569-4.30544 10.39419 0 3.8986 1.54871 7.6376 4.30544 10.3943 2.75674 2.7567 6.49564 4.3054 10.39424 4.3054z" fill="#222" fill-rule="evenodd"/></svg>

<svg width="49" height="49" viewBox="0 0 49 49" fill="none" xmlns="http://www.w3.org/2000/svg">
<path fill-rule="evenodd" clip-rule="evenodd" d="M35.0973 31.6012L48.278 44.782C48.7413 45.2456 49.0015 45.8742 49.0012 46.5296C49.001 47.185 48.7404 47.8135 48.2768 48.2768C47.8132 48.7401 47.1845 49.0002 46.5291 49C45.8737 48.9998 45.2452 48.7392 44.782 48.2756L31.6012 35.0949C27.661 38.1467 22.7062 39.5829 17.7446 39.1112C12.7831 38.6395 8.18766 36.2954 4.8931 32.5558C1.59853 28.8161 -0.147646 23.9618 0.00979079 18.9804C0.167228 13.9991 2.21645 9.26473 5.74059 5.74059C9.26473 2.21645 13.9991 0.167228 18.9805 0.00979079C23.9618 -0.147646 28.8161 1.59853 32.5558 4.8931C36.2954 8.18766 38.6395 12.7831 39.1112 17.7446C39.5829 22.7062 38.1467 27.661 35.0949 31.6012H35.0973ZM19.6014 34.2986C23.5 34.2986 27.2389 32.7499 29.9956 29.9932C32.7524 27.2365 34.3011 23.4975 34.3011 19.5989C34.3011 15.7004 32.7524 11.9614 29.9956 9.20471C27.2389 6.44798 23.5 4.89927 19.6014 4.89927C15.7028 4.89927 11.9639 6.44798 9.20716 9.20471C6.45043 11.9614 4.90172 15.7004 4.90172 19.5989C4.90172 23.4975 6.45043 27.2365 9.20716 29.9932C11.9639 32.7499 15.7028 34.2986 19.6014 34.2986Z" fill="#222222"/>
</svg>
